!!!!SEGMENT: pl-wtm--r-730-16-m_moniuszko-stanislaw--mowie-ci-grzecznie-i-skromnie.krn
!!!cenid: 18xx:1696
!!!COM: Moniuszko, Stanisław
!!!COM-rismID: pe30008351
!!!CDT: 1819/05/05-1872/06/04
!!!CNT: Polish
!!!OTL: Mówię ci grzecznie i skromnie
!!!PDT:
!!!AGN: Secular
!!!SMS-siglum: PL-Wtm
!!!SMS-shelfmark: R 730/16/M
!!!SMS-shelfwork: W
!!!SMS-variant:
!!!SMS-altvar:
!!!NIFC-rismSourceID: 1001099808
!!!NIFC-rismChildID: 1001099808
!!!NIFC-islandoraID:
!!!URL-pdf-islandora:
!!!URL-scan:
!!!IIIF:
!!!ONB-nifc: Skan 0021, No. 768
!!!AIN: 1 forte 1 vox
!!!key:
**kern	**kern	**dynam	**kern	**text	**text	**text	**dynam
*part2	*part2	*part2	*part1	*part1	*part1	*part1	*part1
*staff3	*staff2	*	*staff1	*staff1	*staff1	*staff1	*
*Iforte	*Iempty	*	*Ivox	*	*	*	*
*I"[Fortepian]	*	*	*I"[Głos]	*	*	*	*
*I'pf	*	*	*I'V	*	*	*	*
*clefF4	*clefG2	*	*clefG2	*	*	*	*
*	*ok[f#cc#g#dd#]	*ok[f#cc#g#dd#]	*	*	*	*	*
*k[f#c#g#d#]	*k[f#c#g#d#]	*	*k[f#c#g#d#]	*	*	*	*
*E:	*E:	*	*E:	*	*	*	*
*M3/8	*M3/8	*	*M3/8	*	*	*	*
*>[A,B,B,B,C]	*>[A,B,B,B,C]	*	*>[A,B,B,B,C]	*	*	*	*
=1	=1	=1	=1	=1	=1	=1	=1
*>A	*>A	*	*>A	*	*	*	*
*	*tremolo	*	*	*	*	*	*
!!LO:TX:t=P:problem:all\right:global
!	!	!	!LO:TX:a:i:t=Allegretto._	!	!	!	!
8EE/	16e/LL 16g#	p	4.r	.	.	.	.
.	16B/	.	.	.	.	.	.
8r	16e/ 16g#	.	.	.	.	.	.
.	16B/	.	.	.	.	.	.
16BB/LL	16e/ 16g#	.	.	.	.	.	.
!LO:TX:t=[segno]	!LO:TX:t=[segno]	!	!LO:TX:t=[segno]	!	!	!	!
16C#/JJ	16B/JJ	.	.	.	.	.	.
*	*Xtremolo	*	*	*	*	*	*
=2!|:	=2!|:	=2!|:	=2!|:	=2!|:	=2!|:	=2!|:	=2!|:
*>B	*>B	*	*>B	*	*	*	*
*	*tremolo	*	*	*	*	*	*
(4BB/	16d#/LL 16a	>	4.r	.	.	.	.
.	16B/	.	.	.	.	.	.
.	16d#/ 16a	.	.	.	.	.	.
.	16B/	.	.	.	.	.	.
8BBB/)	16d#/ 16a	.	.	.	.	.	.
.	16B/JJ	.	.	.	.	.	.
*	*Xtremolo	*	*	*	*	*	*
=3	=3	=3	=3	=3	=3	=3	=3
*	*tremolo	*	*	*	*	*	*
8EE/	16e/LL 16g#	]	4.r	.	.	.	.
.	16B/	.	.	.	.	.	.
8r	16e/ 16g#	.	.	.	.	.	.
.	16B/	.	.	.	.	.	.
16BB/LL	16e/ 16g#	.	.	.	.	.	.
16C#/JJ	16B/JJ	.	.	.	.	.	.
*	*Xtremolo	*	*	*	*	*	*
=4	=4	=4	=4	=4	=4	=4	=4
*	*rep	*	*	*	*	*	*
(4BB/	16e/LLyy 16g#	.	4.r	.	.	.	.
.	16B/yy	.	.	.	.	.	.
.	16e/yy 16g#	.	.	.	.	.	.
.	16B/yy	.	.	.	.	.	.
8GG#/)	16e/yy 16g#	.	.	.	.	.	.
.	16B/JJyy	.	.	.	.	.	.
*	*Xrep	*	*	*	*	*	*
=5	=5	=5	=5	=5	=5	=5	=5
*	*rep	*	*	*	*	*	*
4EE/	(16e/LLyy 16g#	.	8b\	”Mó-	”ach!	”Mo-	.
.	16B/)yy	.	.	.	.	.	.
.	(16e/yy 16g#	.	8cc#\	-wię	two-	-ie	.
.	16B/)yy	.	.	.	.	.	.
8r	(16e/yy 16g#	.	8b\	ci	-ie	Ty	.
.	16B/JJ)yy	.	.	.	.	.	.
*	*Xrep	*	*	*	*	*	*
=6	=6	=6	=6	=6	=6	=6	=6
*	*rep	*	*	*	*	*	*
4E\	(16e/LLyy 16g#	.	8g#/	grze-	ocz-	szczęś-	.
.	16B/)yy	.	.	.	.	.	.
.	(16e/yy 16g#	.	8f#/	-cznie	-ka	-cie	.
.	16B/)yy	.	.	.	.	.	.
8r	(16e/yy 16g#	.	8e/	i	nad	je-	.
.	16B/JJ)yy	.	.	.	.	.	.
*	*Xrep	*	*	*	*	*	*
=7	=7	=7	=7	=7	=7	=7	=7
*	*tremolo	*	*	*	*	*	*
4AA/	16e/LL 16g#	.	4.cc#\	skro-	zło-	-dy-	.
.	16c#/	.	.	.	.	.	.
.	16e/ 16g#	.	.	.	.	.	.
.	16c#/	.	.	.	.	.	.
8r	16e/ 16g#	.	.	.	.	.	.
.	16c#/JJ	.	.	.	.	.	.
*	*Xtremolo	*	*	*	*	*	*
=8	=8	=8	=8	=8	=8	=8	=8
*	*tremolo	*	*	*	*	*	*
4EE/	16e/LL 16g#	.	4b\	-mnie	-to	-ne	.
.	16B/	.	.	.	.	.	.
.	16e/ 16g#	.	.	.	.	.	.
.	16B/	.	.	.	.	.	.
8r	16e/ 16g#	.	8r	.	.	.	.
.	16B/JJ	.	.	.	.	.	.
*	*Xtremolo	*	*	*	*	*	*
=9	=9	=9	=9	=9	=9	=9	=9
*	*tremolo	*	*	*	*	*	*
4BB/	16d#/LL 16a	.	8a/	z_tak	ja	cze-	.
.	16B/	.	.	.	.	.	.
.	16d#/ 16a	.	8g#/	dzi-	tyl-	-muż	.
.	16B/	.	.	.	.	.	.
8r	16d#/ 16a	.	8a/	-kiey	-ko	me	.
.	16B/JJ	.	.	.	.	.	.
*	*Xtremolo	*	*	*	*	*	*
!!LO:PB:g=original
=10	=10	=10	=10	=10	=10	=10	=10
*	*tremolo	*	*	*	*	*	*
4BBB/	16d#/LL 16a	.	8B/	nie	dla	ser-	.
.	16B/	.	.	.	.	.	.
.	16d#/ 16a	.	8c#/	chełp	Cie-	-ce	.
.	16B/	.	.	.	.	.	.
8r	16d#/ 16a	.	8d#/	się	-bie	za-	.
.	16B/JJ	.	.	.	.	.	.
*	*Xtremolo	*	*	*	*	*	*
=11	=11	=11	=11	=11	=11	=11	=11
*	*tremolo	*	*	*	*	*	*
4EE/	16e/LL 16g#	.	8f#/	cno-	ży-	-smu-	.
.	16B/	.	.	.	.	.	.
.	16e/ 16g#	.	8e/	-ty,	-ię	-casz	.
.	16B/	.	.	.	.	.	.
8E\	16e/ 16g#	.	8r	.	.	.	.
.	16B/JJ	.	.	.	.	.	.
*	*Xtremolo	*	*	*	*	*	*
=12	=12	=12	=12	=12	=12	=12	=12
*	*tremolo	*	*	*	*	*	*
4D#\	16f#/LL 16g#	.	4.r	.	.	.	.
.	16B#X/	.	.	.	.	.	.
.	16f#/ 16g#	.	.	.	.	.	.
.	16B#/	.	.	.	.	.	.
8r	16f#/ 16g#	.	.	.	.	.	.
.	16B#/JJ	.	.	.	.	.	.
*	*Xtremolo	*	*	*	*	*	*
=13	=13	=13	=13	=13	=13	=13	=13
*	*tremolo	*	*	*	*	*	*
4C#/	16e/LL 16g#	.	8g#/	pos-	poz-	po-	.
.	16c#/	.	.	.	.	.	.
.	16e/ 16g#	.	8f#/	-łu-	-wól	-wiedz	.
.	16c#/	.	.	.	.	.	.
8r	16e/ 16g#	.	8e/	-chay	mi	mi	.
.	16c#/JJ	.	.	.	.	.	.
*	*Xtremolo	*	*	*	*	*	*
=14	=14	=14	=14	=14	=14	=14	=14
*	*rep	*	*	*	*	*	*
4C#/	16e/LLyy 16g#	.	8e/	dziew-	pro-	po-	.
.	16c#/yy	.	.	.	.	.	.
.	16e/yy 16g#	.	8d#/	-cze	-szę	-wiedz	.
.	16c#/yy	.	.	.	.	.	.
8r	16e/yy 16g#	.	8c#/	choć	cię	przy-	.
.	16c#/JJyy	.	.	.	.	.	.
*	*Xrep	*	*	*	*	*	*
=15	=15	=15	=15	=15	=15	=15	=15
*	*tremolo	*	*	*	*	*	*
4F#\	16f#/LL 16a	.	4.a/	do	o	-czy-	.
.	16c#/	.	.	.	.	.	.
.	16f#/ 16a	.	.	.	.	.	.
.	16c#/	.	.	.	.	.	.
8r	16f#/ 16a	.	.	.	.	.	.
.	16c#/JJ	.	.	.	.	.	.
*	*Xtremolo	*	*	*	*	*	*
=16	=16	=16	=16	=16	=16	=16	=16
4C#/	16e/LL 16g#	.	4g#/	mnie	to,	-nę	.
.	16c#/	.	.	.	.	.	.
.	16e/ 16g#	.	.	.	.	.	.
.	16c#/	.	.	.	.	.	.
8BB/	16e/ 16gn	.	8r	.	.	.	.
.	16c#/JJ	.	.	.	.	.	.
=17	=17	=17	=17	=17	=17	=17	=17
.	.	.	8qqg#/	.	.	.	.
*	*tremolo	*	*	*	*	*	*
4.AA#X/	16e/LL 16f#	.	8f#/	choć	Ku-	dla	.
.	16c#/	.	.	.	.	.	.
!	!	!	!LO:SIC:v:s=8e#	!	!	!	!
.	16e/ 16f#	.	8e/	ku-	-pię	któ-	.
.	16c#/	.	.	.	.	.	.
.	16e/ 16f#	.	8f#/	-pię	ci	-rey	.
.	16c#/JJ	.	.	.	.	.	.
*	*Xtremolo	*	*	*	*	*	*
=18	=18	=18	=18	=18	=18	=18	=18
4BB/	16d#/LL 16b	.	8b/	ci	pe-	da-	.
.	16B/	.	.	.	.	.	.
.	16d#/ 16b	.	8d#/	pierś-	-reł	-ry	.
.	16B/	.	.	.	.	.	.
8E\	16e/ 16g#	.	8e/	-cień	na	od-	.
.	16B/JJ	.	.	.	.	.	.
!!LO:LB:g=original
=19	=19	=19	=19	=19	=19	=19	=19
4.F#\	16c#/LL 16f#	.	4.e/	zło-	szy-	-rzu-	.
.	16B/	.	.	.	.	.	.
.	16c#/ 16f#	.	.	.	.	.	.
.	16B/	.	.	.	.	.	.
.	16c#/ 16f#	.	.	.	.	.	.
.	16A#X/JJ	.	.	.	.	.	.
=20	=20	=20	=20	=20	=20	=20	=20
8BB/	16d#/LL 16f#	.	4B/	-ty	-ię	-casz	.
.	16B/JJ	.	.	.	.	.	.
16c#\LL	8r	.	.	.	.	.	.
16A\	.	.	.	.	.	.	.
16F#\	8r	.	8r	.	.	.	.
16A\JJ	.	.	.	.	.	.	.
=21	=21	=21	=21	=21	=21	=21	=21
*tremolo	*	*	*	*	*	*	*
16E\LL 16G#	8r	.	8b\	„Ja	„Ja	„Nie	.
16B\	.	.	.	.	.	.	.
16E\ 16G#	8d#/L 8g# 8b	.	8cc#\	Pa-	Pa-	mi-	.
16B\	.	.	.	.	.	.	.
16E\ 16G#	8d#/J 8g# 8b	.	8b\	-nie	-nie	-łe	.
16B\JJ	.	.	.	.	.	.	.
*Xtremolo	*	*	*	*	*	*	*
=22	=22	=22	=22	=22	=22	=22	=22
*rep	*rep	*	*	*	*	*	*
16E\LLyy 16G#	8ryy	<	8g#/	zło-	pe-	two-	.
16B\yy	.	.	.	.	.	.	.
16E\yy 16G#	8d#/Lyy 8g# 8b	.	8f#/	-ta	-reł	-ie	.
16B\yy	.	.	.	.	.	.	.
16E\yy 16G#	8d#/Jyy 8g# 8b	.	8e/	nie	nie	są	.
16B\JJyy	.	[	.	.	.	.	.
*Xrep	*Xrep	*	*	*	*	*	*
=23	=23	=23	=23	=23	=23	=23	=23
*tremolo	*	*	*	*	*	*	*
16AA\LL 16C# 16E	8r	f	[4.ee\	no-	no-	da-	.
16A\	.	.	.	.	.	.	.
16AA\ 16C# 16E	8c#/L 8a 8cc#	>	.	.	.	.	.
16A\	.	.	.	.	.	.	.
16AA\ 16C# 16E	8c#/J 8a 8cc#	.	.	.	.	.	.
16A\JJ	.	]	.	.	.	.	.
*Xtremolo	*	*	*	*	*	*	*
=24	=24	=24	=24	=24	=24	=24	=24
*tremolo	*	*	*	*	*	*	*
16E\LL 16G#	8r	.p	8ee\]	.	.	.	.
16B\	.	.	.	.	.	.	.
16E\ 16G#	8e/L 8g# 8b	.	8dd#\	.	.	.	.
16B\	.	.	.	.	.	.	.
16E\ 16G#	8e/J 8g# 8b	.	8cc#\	-szę	-szę	-ry	.
16B\JJ	.	.	.	.	.	.	.
*Xtremolo	*	*	*	*	*	*	*
=25	=25	=25	=25	=25	=25	=25	=25
*tremolo	*	*	*	*	*	*	*
16D#\LL 16F#	8r	.	8b\	nie	nie	boś	.
16B\	.	.	.	.	.	.	.
16D#\ 16F#	8g#/L 8b	.	8.cc#\	Ku-	Ku-	Pa-	.
16B\	.	.	.	.	.	.	.
16D#\ 16F#	8g#/J 8b	.	.	.	.	.	.
16B\JJ	.	.	16b\	-puy	-puy	-nie	.
*Xtremolo	*	*	*	*	*	*	*
=26	=26	=26	=26	=26	=26	=26	=26
*rep	*	*	*	*	*	*	*
16D#\LLyy 16F#	8r	.	8a/	nie	nie	brzyd-	.
16B\yy	.	.	.	.	.	.	.
16D#\yy 16F#	8f#/L 8a	.	8.b/	Ku-	Ku-	-ki	.
16B\yy	.	.	.	.	.	.	.
16D#\yy 16F#	8f#/J 8a	.	.	.	.	.	.
16B\JJyy	.	.	16a/	-puy	-puy	i	.
*Xrep	*	*	*	*	*	*	*
=27	=27	=27	=27	=27	=27	=27	=27
8E\	8r	.	4g#/	pro-	pro-	sta-	.
!	!LO:TX:t=P:problem=mixed beam	!	!	!	!	!	!
8r	8e/L 8g/#	.	.	.	.	.	.
8d#\	8g#^<\J 8ee\	.	8ee\	-szę	-szę	-ry	.
!!LO:LB:g=original
=28	=28	=28	=28	=28	=28	=28	=28
8A\ 8c#	8r	.	4e/	pro-	pro-	sta-	.
8r	8c#/L 8e	.	.	.	.	.	.
8AA/ 8E	8c#^/J 8a	.	8a/	-szę	-szę	-ry	.
=29	=29	=29	=29	=29	=29	=29	=29
4BB/	8r	.	8g#/	nie	nie	boś	.
.	8e/L 8g#	.	8.cc#\	Ku-	Ku-	brzyd-	.
(8B\	8e/J 8g#	.	.	.	.	.	.
.	.	.	16b\	-puy	-puy	-ki	.
=30	=30	=30	=30	=30	=30	=30	=30
4BB/)	8r	.	8f#/	nie	nie	boś	.
.	8d#/L 8a	.	8.cc#\	Ku-	Ku-	brzyd-	.
8B\	8d#/J 8a	.	.	.	.	.	.
.	.	.	16b\	-puy	-puy	-ki	.
=31	=31	=31	=31	=31	=31	=31	=31
*	*tremolo	*	*	*	*	*	*
8E\	16e/LL 16g#	.	4b/	pro-	pro-	sta-	.
.	16B/	.	.	.	.	.	.
8r	16e/ 16g#	.	.	.	.	.	.
.	16B/	.	.	.	.	.	.
16BB/LL	16e/ 16g#	.	8e/	-szę!	-szę!	-ry.	.
!LO:TX:t=[segno]	!LO:TX:t=[segno]	!	!LO:TX:t=[segno]	!	!	!	!
16C#/JJ	16B/JJ	.	.	.	.	.	.
*	*Xtremolo	*	*	*	*	*	*
=32:|!	=32:|!	=32:|!	=32:|!	=32:|!	=32:|!	=32:|!	=32:|!
*>C	*>C	*	*>C	*	*	*	*
*	*tremolo	*	*	*	*	*	*
!	!	!	!LO:N:vis=2	!	!	!	!
(4BB/	16d#/LL 16a	.	4.r	.	.	.	.
.	16B/	.	.	.	.	.	.
.	16d#/ 16a	.	.	.	.	.	.
.	16B/	.	.	.	.	.	.
8BBB/)	16d#/ 16a	.	.	.	.	.	.
.	16B/JJ	.	.	.	.	.	.
*	*Xtremolo	*	*	*	*	*	*
=33	=33	=33	=33	=33	=33	=33	=33
!	!	!	!LO:N:vis=2	!	!	!	!
8EE/	8e/ 8g#	.	4.r	.	.	.	.
8r	8r	.	.	.	.	.	.
8r	(16ee\LL 16gg#	.	.	.	.	.	.
.	16b\JJ)	.	.	.	.	.	.
=34	=34	=34	=34	=34	=34	=34	=34
!	!	!	!LO:N:vis=2	!	!	!	!
4E;<\ 4G#	4B;/ 4e	.	4.r	.	.	.	.
8r	8r	.	.	.	.	.	.
!!LO:PB:g=original
==	==	==	==	==	==	==	==
*-	*-	*-	*-	*-	*-	*-	*-
!!!system-decoration: s1{(s2,s3)}
!!!RDF**kern: < = below
!!!RDF**kern: > = above
!!!ENC: Marta Chmielewska
!!!END: 2021-04-19
!!!ENC: Tomasz Grochalski
!!!END: 2021-03-30
!!!YEC: Copyright 2022 Narodowy Instytut Fryderyka Chopina (https://polishscores.org)
!!!YEM: License CC-BY-4.0 (https://creativecommons.org/licenses/by/4.0)
